X:5530
T:Reverend Brother's Jig, The
T:Port an Bhrathair
T:Monk's Jig, The
T:Sonny Brogan's Fancy
T:Sonny Brogan's #1
O:england
R:jig
D:Oisin: Over the Moor to Maggie
M:6/8
L:1/8
K:Ador
ABA c2e|dcd ege|ABA c2e|dcA AGE|
EAA c2e|dcd ege|~a3 ged|cAG A3:|
|:eaa aba|gef ged|eaa aba|ged cAA|
eaa aba|gef ~g3|~a3 ged|cAG A3:|
"Variations of 1st part:"
cBA c2e|dcd ege|~A3 cde|dcA AGE|
cBA c2e|dcd ~e3|aba ged|cAG A3|
EGA c2c|dcd ~e3|EGA c2e|dcA AGE|
AGE c2c|dcd ~e3|aba ged|cAG A3||


